img/linkedin.svg

<svg height="512pt" viewBox="0 0 512 512" width="512pt" xmlns="http://www.w3.org/2000/svg"><path d="m382 492h-352c-5.515625 0-10-4.484375-10-10v-452c0-5.515625 4.484375-10 10-10h20c5.523438 0 10-4.476562 10-10s-4.476562-10-10-10h-20c-16.542969 0-30 13.457031-30 30v452c0 16.542969 13.457031 30 30 30h352c5.519531 0 10-4.476562 10-10s-4.476562-10-10-10zm0 0"/><path d="m482 0h-352c-5.523438 0-10 4.476562-10 10s4.476562 10 10 10h352c5.515625 0 10 4.484375 10 10v452c0 5.515625-4.484375 10-10 10h-20c-5.523438 0-10 4.476562-10 10s4.476562 10 10 10h20c16.542969 0 30-13.460938 30-30v-452c0-16.542969-13.457031-30-30-30zm0 0"/><path d="m123.25 176.75c29.085938 0 52.75-23.664062 52.75-52.75 0-29.089844-23.664062-52.75-52.75-52.75-29.089844 0-52.75 23.664062-52.75 52.75s23.660156 52.75 52.75 52.75zm0-85.5c18.058594 0 32.75 14.691406 32.75 32.75s-14.691406 32.75-32.75 32.75-32.75-14.691406-32.75-32.75 14.691406-32.75 32.75-32.75zm0 0"/><path d="m344.25 181.75c-22.101562 0-43.433594 7.6875-60.5 21.273438v-6.273438c0-5.523438-4.480469-10-10-10h-69.75c-5.523438 0-10 4.476562-10 10v234c0 5.523438 4.476562 10 10 10h73.5c5.519531 0 10-4.476562 10-10v-135.0625c0-16.679688 13.570312-30.25 30.25-30.25s30.25 13.570312 30.25 30.25v135.0625c0 5.523438 4.476562 10 10 10h73.5c5.519531 0 10-4.476562 10-10v-151.75c0-53.625-43.628906-97.25-97.25-97.25zm77.25 239h-53.5v-125.0625c0-27.707031-22.542969-50.25-50.25-50.25-27.710938 0-50.25 22.542969-50.25 50.25v125.0625h-53.5v-214h49.75v21.011719c0 4.328125 2.78125 8.164062 6.898438 9.507812 4.109374 1.339844 8.625-.117187 11.175781-3.613281 14.585937-19.976562 37.921875-31.90625 62.425781-31.90625 42.59375 0 77.25 34.652344 77.25 77.25zm0 0"/><path d="m86.5 186.75c-5.523438 0-10 4.476562-10 10v234c0 5.523438 4.476562 10 10 10h73.5c5.519531 0 10-4.476562 10-10v-234c0-5.523438-4.480469-10-10-10zm63.5 234h-53.5v-214h53.5zm0 0"/><path d="m90.003906 20c5.519532 0 10-4.476562 10-10s-4.480468-10-10-10h-.007812c-5.523438 0-9.996094 4.476562-9.996094 10s4.480469 10 10.003906 10zm0 0"/><path d="m422.003906 492h-.007812c-5.523438 0-9.996094 4.476562-9.996094 10s4.480469 10 10.003906 10c5.523438 0 10-4.476562 10-10s-4.476562-10-10-10zm0 0"/></svg>

<svg id="Layer_1" data-name="Layer 1" xmlns="http://www.w3.org/2000/svg" viewBox="0 0 512 512"><defs><style>.cls-1{fill:#fff;}</style></defs><title>linkedin</title><path class="cls-1" d="M382,492H30a10,10,0,0,1-10-10V30A10,10,0,0,1,30,20H50A10,10,0,0,0,50,0H30A30,30,0,0,0,0,30V482a30,30,0,0,0,30,30H382a10,10,0,0,0,0-20Z"/><path class="cls-1" d="M482,0H130a10,10,0,0,0,0,20H482a10,10,0,0,1,10,10V482a10,10,0,0,1-10,10H462a10,10,0,0,0,0,20h20a30,30,0,0,0,30-30V30A30,30,0,0,0,482,0Z"/><path class="cls-1" d="M123.25,176.75A52.75,52.75,0,1,0,70.5,124,52.81,52.81,0,0,0,123.25,176.75Zm0-85.5A32.75,32.75,0,1,1,90.5,124,32.79,32.79,0,0,1,123.25,91.25Z"/><path class="cls-1" d="M344.25,181.75A97.39,97.39,0,0,0,283.75,203v-6.27a10,10,0,0,0-10-10H204a10,10,0,0,0-10,10v234a10,10,0,0,0,10,10h73.5a10,10,0,0,0,10-10V295.69a30.25,30.25,0,0,1,60.5,0V430.75a10,10,0,0,0,10,10h73.5a10,10,0,0,0,10-10V279A97.37,97.37,0,0,0,344.25,181.75Zm77.25,239H368V295.69a50.25,50.25,0,0,0-100.5,0V420.75H214v-214h49.75v21a10,10,0,0,0,18.07,5.9A77.17,77.17,0,0,1,421.5,279Z"/><path class="cls-1" d="M86.5,186.75a10,10,0,0,0-10,10v234a10,10,0,0,0,10,10H160a10,10,0,0,0,10-10v-234a10,10,0,0,0-10-10Zm63.5,234H96.5v-214H150Z"/><path class="cls-1" d="M90,20A10,10,0,0,0,90,0h0a10,10,0,0,0,0,20Z"/><path class="cls-1" d="M422,492h0a10,10,0,1,0,10,10A10,10,0,0,0,422,492Z"/></svg>
